;FLAVOR:Marlin
;TIME:2681
;Filament used: 1.89026m
;Layer height: 0.2
;MINX:13.438
;MINY:66.5
;MINZ:0.2
;MAXX:65.562
;MAXY:168.5
;MAXZ:4
;POSTPROCESSED
;Generated with Cura_SteamEngine 4.9.0
M140 S60
M105
M190 S60
M104 S200
M105
M109 S200
M82 ;absolute extrusion mode
; Ender 3 Custom Start G-code
G92 E0 ; Reset Extruder
G28 ; Home all axes
G1 Z2.0 F3000 ; Move Z Axis up little to prevent scratching of Heat Bed
G1 X0.1 Y20 Z0.3 F5000.0 ; Move to start position
G1 X0.1 Y200.0 Z0.3 F1500.0 E15 ; Draw the first line
G1 X0.4 Y200.0 Z0.3 F5000.0 ; Move to side a little
G1 X0.4 Y20 Z0.3 F1500.0 E30 ; Draw the second line
G92 E0 ; Reset Extruder
G1 Z2.0 F3000 ; Move Z Axis up little to prevent scratching of Heat Bed
G1 X5 Y20 Z0.3 F5000.0 ; Move over to prevent blob squish
G92 E0
G92 E0
G1 F1500 E-6.5
;LAYER_COUNT:20
;LAYER:0
M107
G0 F6000 X21.57 Y66.927 Z0.2
;TYPE:SKIRT
G1 F1500 E0
G1 F1200 X22.482 Y66.709 E0.03119
G1 X23.409 Y66.571 E0.06236
G1 X24.263 Y66.513 E0.09083
G1 X24.583 Y66.504 E0.10148
G1 X24.892 Y66.5 E0.11175
G1 X53.855 Y66.5 E1.07507
G1 X54.711 Y66.511 E1.10354
G1 X55.647 Y66.565 E1.13472
G1 X56.575 Y66.697 E1.1659
G1 X57.489 Y66.909 E1.19711
G1 X58.381 Y67.198 E1.22829
G1 X59.246 Y67.561 E1.25949
G1 X60.076 Y67.997 E1.29068
G1 X60.867 Y68.502 E1.32189
G1 X61.611 Y69.073 E1.35308
G1 X62.304 Y69.705 E1.38428
G1 X62.941 Y70.393 E1.41546
G1 X63.516 Y71.134 E1.44666
G1 X64.027 Y71.92 E1.47784
G1 X64.469 Y72.748 E1.50906
G1 X64.838 Y73.61 E1.54025
G1 X65.133 Y74.5 E1.57143
G1 X65.351 Y75.412 E1.60262
G1 X65.491 Y76.34 E1.63383
G1 X65.549 Y77.201 E1.66253
G1 X65.558 Y77.521 E1.67318
G1 X65.562 Y77.83 E1.68346
G1 X65.561 Y103.926 E2.55142
G1 X65.551 Y104.65 E2.5755
G1 X65.542 Y104.962 E2.58588
G1 X65.509 Y105.713 E2.61088
G1 X65.424 Y107.208 E2.66069
G1 X65.353 Y109.756 E2.74547
G1 X65.353 Y112.28 E2.82942
G1 X65.425 Y114.8 E2.91327
G1 X65.491 Y116.108 E2.95683
G1 X65.534 Y116.853 E2.98165
G1 X65.547 Y117.166 E2.99206
G1 X65.557 Y117.509 E3.00348
G1 X65.562 Y117.83 E3.01416
G1 X65.561 Y146.949 E3.98266
G1 X65.551 Y147.655 E4.00614
G1 X65.543 Y147.955 E4.01612
G1 X65.521 Y148.489 E4.0339
G1 X65.446 Y151.12 E4.12144
G1 X65.44 Y152.549 E4.16897
G1 X65.437 Y156.915 E4.31419
G1 X65.427 Y157.642 E4.33837
G1 X65.374 Y158.579 E4.36958
G1 X65.242 Y159.507 E4.40076
G1 X65.031 Y160.421 E4.43196
G1 X64.742 Y161.313 E4.46314
G1 X64.379 Y162.178 E4.49434
G1 X63.944 Y163.009 E4.52554
G1 X63.439 Y163.799 E4.55673
G1 X62.869 Y164.544 E4.58793
G1 X62.238 Y165.238 E4.61912
G1 X61.549 Y165.875 E4.65033
G1 X60.809 Y166.451 E4.68152
G1 X60.023 Y166.962 E4.7127
G1 X59.196 Y167.404 E4.74389
G1 X58.334 Y167.774 E4.77509
G1 X57.444 Y168.069 E4.80628
G1 X56.532 Y168.288 E4.83747
G1 X55.605 Y168.428 E4.86865
G1 X54.737 Y168.487 E4.89759
G1 X54.417 Y168.496 E4.90824
G1 X54.108 Y168.5 E4.91852
G1 X25.003 Y168.499 E5.88655
G1 X24.305 Y168.49 E5.90977
G1 X23.369 Y168.438 E5.94095
G1 X22.44 Y168.306 E5.97216
G1 X21.526 Y168.096 E6.00335
G1 X20.633 Y167.809 E6.03455
G1 X19.768 Y167.446 E6.06575
G1 X18.937 Y167.012 E6.09693
G1 X18.146 Y166.508 E6.12813
G1 X17.401 Y165.938 E6.15933
G1 X16.707 Y165.307 E6.19052
G1 X16.07 Y164.62 E6.22168
G1 X15.493 Y163.88 E6.25289
G1 X14.981 Y163.094 E6.28409
G1 X14.538 Y162.267 E6.3153
G1 X14.167 Y161.406 E6.34648
G1 X13.871 Y160.516 E6.37768
G1 X13.652 Y159.604 E6.40887
G1 X13.511 Y158.677 E6.44006
G1 X13.451 Y157.788 E6.46969
G1 X13.442 Y157.455 E6.48077
G1 X13.438 Y157.158 E6.49065
G1 X13.439 Y153.055 E6.62712
G1 X13.449 Y152.332 E6.65117
G1 X13.458 Y152.014 E6.66175
G1 X13.479 Y151.533 E6.67776
G1 X13.554 Y148.88 E6.76604
G1 X13.56 Y147.451 E6.81357
G1 X13.563 Y118.051 E7.79141
G1 X13.573 Y117.344 E7.81493
G1 X13.582 Y117.034 E7.82525
G1 X13.615 Y116.287 E7.85012
G1 X13.7 Y114.792 E7.89992
G1 X13.771 Y112.244 E7.9847
G1 X13.771 Y109.72 E8.06865
G1 X13.699 Y107.201 E8.15246
G1 X13.633 Y105.892 E8.19606
G1 X13.59 Y105.147 E8.22088
G1 X13.577 Y104.835 E8.23126
G1 X13.567 Y104.493 E8.24264
G1 X13.562 Y104.171 E8.25335
G1 X13.563 Y78.009 E9.12351
G1 X13.573 Y77.344 E9.14563
G1 X13.627 Y76.407 E9.17684
G1 X13.761 Y75.479 E9.20803
G1 X13.973 Y74.565 E9.23924
G1 X14.262 Y73.673 E9.27042
G1 X14.627 Y72.809 E9.30162
G1 X15.063 Y71.979 E9.3328
G1 X15.569 Y71.189 E9.364
G1 X16.14 Y70.445 E9.3952
G1 X16.772 Y69.752 E9.42639
G1 X17.461 Y69.116 E9.45758
G1 X18.202 Y68.541 E9.48877
G1 X18.989 Y68.031 E9.51997
G1 X19.817 Y67.59 E9.55117
G1 X20.679 Y67.221 E9.58235
G1 X21.57 Y66.927 E9.61356
G0 F6000 X21.923 Y67.245
G1 F1200 X22.824 Y67.054 E9.64419
G1 X23.738 Y66.942 E9.67482
G1 X24.274 Y66.913 E9.69267
G1 X24.594 Y66.904 E9.70332
G1 X24.892 Y66.9 E9.71323
G1 X53.855 Y66.9 E10.67655
G1 X54.705 Y66.911 E10.70482
G1 X55.624 Y66.964 E10.73544
G1 X56.535 Y67.097 E10.76606
G1 X57.431 Y67.308 E10.79668
G1 X58.305 Y67.596 E10.82728
G1 X59.152 Y67.959 E10.85793
G1 X59.963 Y68.394 E10.88854
G1 X60.733 Y68.898 E10.91915
G1 X61.457 Y69.467 E10.94978
G1 X62.129 Y70.097 E10.98041
G1 X62.744 Y70.782 E11.01103
G1 X63.297 Y71.518 E11.04165
G1 X63.784 Y72.299 E11.07226
G1 X64.201 Y73.12 E11.10289
G1 X64.546 Y73.974 E11.13353
G1 X64.815 Y74.854 E11.16413
G1 X65.007 Y75.755 E11.19477
G1 X65.12 Y76.668 E11.22537
G1 X65.149 Y77.212 E11.24349
G1 X65.158 Y77.532 E11.25414
G1 X65.162 Y77.83 E11.26405
G1 X65.161 Y103.92 E12.13181
G1 X65.151 Y104.644 E12.15589
G1 X65.143 Y104.945 E12.1659
G1 X65.11 Y105.69 E12.19071
G1 X65.024 Y107.208 E12.24128
G1 X64.953 Y109.745 E12.32569
G1 X64.953 Y112.257 E12.40924
G1 X65.027 Y114.832 E12.49492
G1 X65.096 Y116.211 E12.54084
G1 X65.134 Y116.876 E12.563
G1 X65.147 Y117.178 E12.57305
G1 X65.157 Y117.521 E12.58446
G1 X65.162 Y117.83 E12.59474
G1 X65.161 Y146.943 E13.56304
G1 X65.151 Y147.649 E13.58653
G1 X65.143 Y147.939 E13.59618
G1 X65.121 Y148.463 E13.61362
G1 X65.046 Y151.107 E13.7016
G1 X65.04 Y152.547 E13.74949
G1 X65.037 Y156.91 E13.89461
G1 X65.027 Y157.637 E13.91879
G1 X64.974 Y158.556 E13.9494
G1 X64.842 Y159.467 E13.98002
G1 X64.631 Y160.363 E14.01064
G1 X64.344 Y161.238 E14.04127
G1 X63.981 Y162.084 E14.07188
G1 X63.547 Y162.896 E14.10251
G1 X63.043 Y163.667 E14.13314
G1 X62.475 Y164.391 E14.16375
G1 X61.846 Y165.063 E14.19436
G1 X61.161 Y165.678 E14.22498
G1 X60.425 Y166.231 E14.2556
G1 X59.644 Y166.719 E14.28623
G1 X58.824 Y167.137 E14.31684
G1 X57.97 Y167.482 E14.34748
G1 X57.09 Y167.751 E14.37809
G1 X56.189 Y167.944 E14.40873
G1 X55.276 Y168.057 E14.43933
G1 X54.726 Y168.087 E14.45765
G1 X54.406 Y168.096 E14.4683
G1 X54.108 Y168.1 E14.47821
G1 X25.008 Y168.099 E15.44608
G1 X24.31 Y168.09 E15.4693
G1 X23.391 Y168.038 E15.49991
G1 X22.48 Y167.907 E15.53052
G1 X21.584 Y167.697 E15.56113
G1 X20.709 Y167.41 E15.59176
G1 X19.862 Y167.048 E15.6224
G1 X19.05 Y166.614 E15.65302
G1 X18.279 Y166.112 E15.68362
G1 X17.554 Y165.544 E15.71425
G1 X16.881 Y164.915 E15.74489
G1 X16.266 Y164.231 E15.77549
G1 X15.712 Y163.496 E15.8061
G1 X15.224 Y162.715 E15.83673
G1 X14.805 Y161.895 E15.86736
G1 X14.459 Y161.042 E15.89797
G1 X14.189 Y160.162 E15.92859
G1 X13.996 Y159.261 E15.95923
G1 X13.882 Y158.348 E15.98984
G1 X13.851 Y157.777 E16.00886
G1 X13.842 Y157.444 E16.01994
G1 X13.838 Y157.158 E16.02945
G1 X13.839 Y153.06 E16.16575
G1 X13.849 Y152.337 E16.1898
G1 X13.858 Y152.031 E16.19998
G1 X13.878 Y151.562 E16.21559
G1 X13.954 Y148.893 E16.3044
G1 X13.96 Y147.453 E16.3523
G1 X13.963 Y118.057 E17.33001
G1 X13.973 Y117.35 E17.35353
G1 X13.982 Y117.051 E17.36348
G1 X14.014 Y116.31 E17.38815
G1 X14.1 Y114.792 E17.43872
G1 X14.171 Y112.255 E17.52313
G1 X14.171 Y109.743 E17.60668
G1 X14.097 Y107.168 E17.69236
G1 X14.028 Y105.789 E17.73828
G1 X13.99 Y105.124 E17.76044
G1 X13.977 Y104.823 E17.77046
G1 X13.967 Y104.481 E17.78184
G1 X13.962 Y104.171 E17.79215
G1 X13.963 Y78.015 E18.6621
G1 X13.973 Y77.35 E18.68422
G1 X14.027 Y76.431 E18.71484
G1 X14.16 Y75.52 E18.74546
G1 X14.372 Y74.624 E18.77609
G1 X14.661 Y73.749 E18.80674
G1 X15.025 Y72.904 E18.83734
G1 X15.46 Y72.093 E18.86795
G1 X15.965 Y71.322 E18.8986
G1 X16.534 Y70.599 E18.9292
G1 X17.164 Y69.927 E18.95984
G1 X17.85 Y69.313 E18.99046
G1 X18.586 Y68.761 E19.02106
G1 X19.368 Y68.274 E19.0517
G1 X20.189 Y67.858 E19.08231
G1 X21.043 Y67.514 E19.11293
G1 X21.923 Y67.245 E19.14354
G0 F6000 X21.404 Y67.813
G1 F1200 X22.274 Y67.571 E19.17357
G1 X23.162 Y67.407 E19.20361
G1 X24.285 Y67.313 E19.24109
G1 X24.605 Y67.304 E19.25174
G1 X24.892 Y67.3 E19.26128
G1 X53.855 Y67.3 E20.2246
G1 X54.699 Y67.311 E20.25267
G1 X55.601 Y67.364 E20.28272
G1 X56.494 Y67.496 E20.31275
G1 X57.372 Y67.707 E20.34278
G1 X58.228 Y67.995 E20.37282
G1 X59.055 Y68.357 E20.40285
G1 X59.847 Y68.792 E20.4329
G1 X60.598 Y69.294 E20.46295
G1 X61.301 Y69.861 E20.49298
G1 X61.951 Y70.488 E20.52302
G1 X62.543 Y71.17 E20.55306
G1 X63.073 Y71.901 E20.58309
G1 X63.535 Y72.677 E20.61313
G1 X63.928 Y73.49 E20.64316
G1 X64.246 Y74.335 E20.67319
G1 X64.489 Y75.205 E20.70324
G1 X64.654 Y76.093 E20.73328
G1 X64.749 Y77.223 E20.77099
G1 X64.758 Y77.543 E20.78164
G1 X64.762 Y77.83 E20.79119
G1 X64.761 Y103.915 E21.65878
G1 X64.751 Y104.639 E21.68286
G1 X64.743 Y104.928 E21.69248
G1 X64.711 Y105.668 E21.71711
G1 X64.624 Y107.211 E21.76851
G1 X64.553 Y109.734 E21.85246
G1 X64.553 Y112.269 E21.93678
G1 X64.627 Y114.863 E22.02309
G1 X64.692 Y116.154 E22.06608
G1 X64.735 Y116.899 E22.0909
G1 X64.748 Y117.19 E22.10059
G1 X64.758 Y117.533 E22.112
G1 X64.762 Y117.83 E22.12188
G1 X64.761 Y146.937 E23.08998
G1 X64.751 Y147.643 E23.11347
G1 X64.743 Y147.922 E23.12275
G1 X64.722 Y148.433 E23.13976
G1 X64.646 Y151.095 E23.22834
G1 X64.64 Y152.545 E23.27656
G1 X64.637 Y156.904 E23.42155
G1 X64.627 Y157.631 E23.44573
G1 X64.575 Y158.533 E23.47578
G1 X64.443 Y159.426 E23.5058
G1 X64.232 Y160.305 E23.53587
G1 X63.945 Y161.161 E23.5659
G1 X63.583 Y161.988 E23.59592
G1 X63.149 Y162.78 E23.62596
G1 X62.647 Y163.531 E23.65601
G1 X62.081 Y164.234 E23.68602
G1 X61.454 Y164.885 E23.71609
G1 X60.773 Y165.477 E23.7461
G1 X60.042 Y166.007 E23.77613
G1 X59.266 Y166.47 E23.80618
G1 X58.453 Y166.863 E23.83622
G1 X57.608 Y167.183 E23.86627
G1 X56.739 Y167.426 E23.89628
G1 X55.851 Y167.591 E23.92632
G1 X54.715 Y167.687 E23.96424
G1 X54.395 Y167.696 E23.97489
G1 X54.108 Y167.7 E23.98443
G1 X25.013 Y167.699 E24.95214
G1 X24.315 Y167.69 E24.97536
G1 X23.414 Y167.639 E25.00537
G1 X22.52 Y167.507 E25.03543
G1 X21.642 Y167.298 E25.06545
G1 X20.785 Y167.011 E25.09551
G1 X19.958 Y166.65 E25.12552
G1 X19.165 Y166.217 E25.15557
G1 X18.414 Y165.716 E25.1856
G1 X17.71 Y165.15 E25.21564
G1 X17.059 Y164.524 E25.24568
G1 X16.466 Y163.843 E25.27571
G1 X15.936 Y163.112 E25.30574
G1 X15.472 Y162.337 E25.33579
G1 X15.078 Y161.524 E25.36584
G1 X14.758 Y160.68 E25.39586
G1 X14.514 Y159.81 E25.42591
G1 X14.348 Y158.922 E25.45596
G1 X14.251 Y157.767 E25.49451
G1 X14.242 Y157.434 E25.50559
G1 X14.238 Y157.158 E25.51477
G1 X14.239 Y153.066 E25.65087
G1 X14.249 Y152.343 E25.67492
G1 X14.257 Y152.049 E25.6847
G1 X14.279 Y151.524 E25.70218
G1 X14.354 Y148.905 E25.78932
G1 X14.36 Y147.455 E25.83755
G1 X14.363 Y118.063 E26.81513
G1 X14.373 Y117.356 E26.83865
G1 X14.381 Y117.068 E26.84823
G1 X14.413 Y116.332 E26.87273
G1 X14.5 Y114.789 E26.92414
G1 X14.571 Y112.266 E27.00808
G1 X14.571 Y109.732 E27.09237
G1 X14.497 Y107.136 E27.17874
G1 X14.428 Y105.769 E27.22427
G1 X14.389 Y105.101 E27.24652
G1 X14.376 Y104.811 E27.25618
G1 X14.366 Y104.469 E27.26756
G1 X14.362 Y104.171 E27.27747
G1 X14.363 Y78.021 E28.14722
G1 X14.373 Y77.356 E28.16934
G1 X14.427 Y76.454 E28.1994
G1 X14.56 Y75.561 E28.22943
G1 X14.771 Y74.683 E28.25946
G1 X15.06 Y73.827 E28.28951
G1 X15.423 Y73 E28.31955
G1 X15.857 Y72.209 E28.34956
G1 X16.36 Y71.458 E28.37962
G1 X16.928 Y70.756 E28.40966
G1 X17.555 Y70.106 E28.43969
G1 X18.237 Y69.514 E28.46973
G1 X18.969 Y68.985 E28.49977
G1 X19.745 Y68.523 E28.52981
G1 X20.559 Y68.132 E28.55984
G1 X21.404 Y67.813 E28.58988
G1 F1500 E22.08988
;MESH:One Thread Box Walls.stl
G0 F6000 X23.909 Y148.153
G0 X24.852 Y151.835
G0 X24.852 Y152.914
G0 X53.656 Y153.282
G0 X53.838 Y156.9
;TYPE:WALL-INNER
G1 F1500 E28.58988
G1 F1200 X25.038 Y156.9 E29.54778
G1 X25.038 Y153.1 E29.67416
G1 X53.838 Y153.1 E30.63206
G1 X53.838 Y156.9 E30.75844
G0 F6000 X54.238 Y157.3
;TYPE:WALL-OUTER
G1 F1200 X24.638 Y157.3 E31.74294
G1 X24.638 Y152.7 E31.89594
G1 X54.238 Y152.7 E32.88044
G1 X54.238 Y157.3 E33.03344
G0 F6000 X53.968 Y157.03
G0 X53.728 Y156.51
G0 X53.448 Y156.51
;TYPE:SKIN
G1 F1200 X25.428 Y156.51 E33.96539
G1 X25.428 Y153.49 E34.06583
G1 X53.448 Y153.49 E34.99778
G1 X53.448 Y156.51 E35.09823
G0 F6000 X53.728 Y156.51
G0 X53.728 Y153.98
G0 X53.288 Y153.98
G1 F1200 X52.957 Y153.649 E35.1138
G0 F6000 X52.391 Y153.649
G1 F1200 X53.288 Y154.545 E35.15596
G0 F6000 X53.288 Y155.111
G1 F1200 X51.825 Y153.649 E35.22476
G0 F6000 X51.26 Y153.649
G1 F1200 X53.288 Y155.677 E35.32015
G0 F6000 X53.288 Y156.243
G1 F1200 X50.694 Y153.649 E35.44216
G0 F6000 X50.128 Y153.649
G1 F1200 X52.828 Y156.349 E35.56916
G0 F6000 X52.262 Y156.349
G1 F1200 X49.563 Y153.649 E35.69614
G0 F6000 X48.997 Y153.649
G1 F1200 X51.697 Y156.349 E35.82314
G0 F6000 X51.131 Y156.349
G1 F1200 X48.431 Y153.649 E35.95014
G0 F6000 X47.866 Y153.649
G1 F1200 X50.565 Y156.349 E36.07711
G0 F6000 X50 Y156.349
G1 F1200 X47.3 Y153.649 E36.20411
G0 F6000 X46.734 Y153.649
G1 F1200 X49.434 Y156.349 E36.33111
G0 F6000 X48.868 Y156.349
G1 F1200 X46.169 Y153.649 E36.45809
G0 F6000 X45.603 Y153.649
G1 F1200 X48.303 Y156.349 E36.58509
G0 F6000 X47.737 Y156.349
G1 F1200 X45.037 Y153.649 E36.71209
G0 F6000 X44.472 Y153.649
G1 F1200 X47.171 Y156.349 E36.83906
G0 F6000 X46.606 Y156.349
G1 F1200 X43.906 Y153.649 E36.96606
G0 F6000 X43.34 Y153.649
G1 F1200 X46.04 Y156.349 E37.09306
G0 F6000 X45.474 Y156.349
G1 F1200 X42.775 Y153.649 E37.22004
G0 F6000 X42.209 Y153.649
G1 F1200 X44.909 Y156.349 E37.34704
G0 F6000 X44.343 Y156.349
G1 F1200 X41.643 Y153.649 E37.47404
G0 F6000 X41.077 Y153.649
G1 F1200 X43.777 Y156.349 E37.60104
G0 F6000 X43.212 Y156.349
G1 F1200 X40.512 Y153.649 E37.72804
G0 F6000 X39.946 Y153.649
G1 F1200 X42.646 Y156.349 E37.85504
G0 F6000 X42.08 Y156.349
G1 F1200 X39.38 Y153.649 E37.98204
G0 F6000 X38.815 Y153.649
G1 F1200 X41.514 Y156.349 E38.10901
G0 F6000 X40.949 Y156.349
G1 F1200 X38.249 Y153.649 E38.23601
G0 F6000 X37.683 Y153.649
G1 F1200 X40.383 Y156.349 E38.36301
G0 F6000 X39.817 Y156.349
G1 F1200 X37.118 Y153.649 E38.48999
G0 F6000 X36.552 Y153.649
G1 F1200 X39.252 Y156.349 E38.61699
G0 F6000 X38.686 Y156.349
G1 F1200 X35.986 Y153.649 E38.74399
G0 F6000 X35.421 Y153.649
G1 F1200 X38.12 Y156.349 E38.87097
G0 F6000 X37.555 Y156.349
G1 F1200 X34.855 Y153.649 E38.99797
G0 F6000 X34.289 Y153.649
G1 F1200 X36.989 Y156.349 E39.12496
G0 F6000 X36.423 Y156.349
G1 F1200 X33.724 Y153.649 E39.25194
G0 F6000 X33.158 Y153.649
G1 F1200 X35.858 Y156.349 E39.37894
G0 F6000 X35.292 Y156.349
G1 F1200 X32.592 Y153.649 E39.50594
G0 F6000 X32.026 Y153.649
G1 F1200 X34.726 Y156.349 E39.63294
G0 F6000 X34.161 Y156.349
G1 F1200 X31.461 Y153.649 E39.75994
G0 F6000 X30.895 Y153.649
G1 F1200 X33.595 Y156.349 E39.88694
G0 F6000 X33.029 Y156.349
G1 F1200 X30.329 Y153.649 E40.01394
G0 F6000 X29.764 Y153.649
G1 F1200 X32.463 Y156.349 E40.14092
G0 F6000 X31.898 Y156.349
G1 F1200 X29.198 Y153.649 E40.26792
G0 F6000 X28.632 Y153.649
G1 F1200 X31.332 Y156.349 E40.39491
G0 F6000 X30.766 Y156.349
G1 F1200 X28.067 Y153.649 E40.52189
G0 F6000 X27.501 Y153.649
G1 F1200 X30.201 Y156.349 E40.64889
G0 F6000 X29.635 Y156.349
G1 F1200 X26.935 Y153.649 E40.77589
G0 F6000 X26.37 Y153.649
G1 F1200 X29.069 Y156.349 E40.90287
G0 F6000 X28.504 Y156.349
G1 F1200 X25.804 Y153.649 E41.02987
G0 F6000 X25.588 Y153.998
G1 F1200 X27.938 Y156.349 E41.14043
G0 F6000 X27.372 Y156.349
G1 F1200 X25.588 Y154.564 E41.22436
G0 F6000 X25.588 Y155.13
G1 F1200 X26.807 Y156.349 E41.2817
G0 F6000 X26.241 Y156.349
G1 F1200 X25.588 Y155.695 E41.31244
G0 F6000 X25.588 Y156.261
G1 F1200 X25.675 Y156.349 E41.31656
G0 F6000 X25.675 Y156.7
G1 F1500 E34.81656
G0 F6000 X25.675 Y156.79
G0 X25.22 Y156.718
G0 X25.162 Y152.92
G0 X25.162 Y151.835
G0 X25.162 Y148.165
G0 X25.162 Y147.08
G0 X25.162 Y146.9
