;FLAVOR:Marlin
;TIME:2641
;Filament used: 1.96771m, 0.215249m
;Layer height: 0.2
;MINX:2.099
;MINY:86.5
;MINZ:0.2
;MAXX:76.901
;MAXY:162.581
;MAXZ:5
;POSTPROCESSED
;Generated with Cura_SteamEngine 4.9.0
T0
M140 S60
M105
M190 S60
M104 S200
;M104 T1 S150
M105
M109 S200
M105
;M109 T1 S150
M82 ;absolute extrusion mode
; Ender 3 Custom Start G-code
G92 E0 ; Reset Extruder
G28 ; Home all axes
G1 Z2.0 F3000 ; Move Z Axis up little to prevent scratching of Heat Bed
G1 X0.1 Y20 Z0.3 F5000.0 ; Move to start position
G1 X0.1 Y200.0 Z0.3 F1500.0 E15 ; Draw the first line
G1 X0.4 Y200.0 Z0.3 F5000.0 ; Move to side a little
G1 X0.4 Y20 Z0.3 F1500.0 E30 ; Draw the second line
G92 E0 ; Reset Extruder
G1 Z2.0 F3000 ; Move Z Axis up little to prevent scratching of Heat Bed
G1 X5 Y20 Z0.3 F5000.0 ; Move over to prevent blob squish
G92 E0
G92 E0
G1 F1500 E-6.5
;LAYER_COUNT:20
;LAYER:0
M107
G0 F6000 X12.347 Y86.971 Z0.2
;TYPE:SKIRT
G1 F1500 E0
G1 F1200 X13.201 Y86.913 E0.02847
G1 X13.521 Y86.904 E0.03912
G1 X13.83 Y86.9 E0.0494
G1 X64.793 Y86.9 E1.74443
G1 X65.649 Y86.911 E1.7729
G1 X66.585 Y86.965 E1.80409
G1 X67.513 Y87.097 E1.83526
G1 X68.427 Y87.309 E1.86647
G1 X69.319 Y87.598 E1.89766
G1 X70.184 Y87.961 E1.92886
G1 X71.014 Y88.397 E1.96004
G1 X71.805 Y88.902 E1.99125
G1 X72.549 Y89.473 E2.02245
G1 X73.242 Y90.105 E2.05364
G1 X73.879 Y90.793 E2.08483
G1 X74.454 Y91.534 E2.11602
G1 X74.965 Y92.32 E2.1472
G1 X75.407 Y93.148 E2.17842
G1 X75.776 Y94.01 E2.20961
G1 X76.071 Y94.9 E2.24079
G1 X76.289 Y95.812 E2.27198
G1 X76.429 Y96.74 E2.3032
G1 X76.487 Y97.601 E2.3319
G1 X76.496 Y97.921 E2.34255
G1 X76.5 Y98.229 E2.35279
G1 X76.501 Y116.917 E2.97436
G1 X76.497 Y117.981 E3.00975
G1 X76.5 Y118.378 E3.02295
G1 X76.499 Y136.541 E3.62705
G1 X76.488 Y137.265 E3.65114
G1 X76.434 Y138.201 E3.68232
G1 X76.3 Y139.13 E3.71354
G1 X76.087 Y140.043 E3.74472
G1 X75.798 Y140.935 E3.77591
G1 X75.449 Y141.768 E3.80595
G1 X74.96 Y142.81 E3.84423
G1 X73.899 Y145.159 E3.92996
G1 X72.927 Y147.483 E4.01374
G1 X72.01 Y149.856 E4.09836
G1 X71.177 Y152.222 E4.18178
G1 X70.853 Y153.209 E4.21634
G1 X70.779 Y153.422 E4.22384
G1 X70.408 Y154.351 E4.25711
G1 X70.249 Y154.702 E4.26992
G1 X69.826 Y155.539 E4.30112
G1 X69.323 Y156.351 E4.33288
G1 X69.142 Y156.617 E4.34359
G1 X68.582 Y157.369 E4.37477
G1 X67.884 Y158.149 E4.40958
G1 X67.618 Y158.419 E4.42219
G1 X66.932 Y159.058 E4.45337
G1 X66.16 Y159.661 E4.48595
G1 X65.886 Y159.856 E4.49714
G1 X65.1 Y160.367 E4.52832
G1 X64.242 Y160.823 E4.56064
G1 X63.919 Y160.977 E4.57254
G1 X63.056 Y161.344 E4.60373
G1 X62.071 Y161.663 E4.63817
G1 X61.74 Y161.753 E4.64958
G1 X60.825 Y161.96 E4.68078
G1 X59.84 Y162.094 E4.71384
G1 X59.451 Y162.129 E4.72683
G1 X58.811 Y162.168 E4.74816
G1 X58.557 Y162.176 E4.75661
G1 X58.211 Y162.181 E4.76812
G1 X21.055 Y162.18 E6.00393
G1 X20.349 Y162.17 E6.02742
G1 X19.939 Y162.157 E6.04106
G1 X19.43 Y162.123 E6.05803
G1 X19.218 Y162.104 E6.06511
G1 X18.288 Y161.981 E6.09631
G1 X17.646 Y161.847 E6.11812
G1 X17.357 Y161.778 E6.128
G1 X16.854 Y161.646 E6.1453
G1 X15.964 Y161.35 E6.1765
G1 X15.483 Y161.154 E6.19377
G1 X15.157 Y161.012 E6.2056
G1 X14.314 Y160.601 E6.23679
G1 X13.5 Y160.114 E6.26834
G1 X13.21 Y159.923 E6.27989
G1 X12.449 Y159.374 E6.3111
G1 X11.661 Y158.689 E6.34583
G1 X11.414 Y158.453 E6.35719
G1 X10.764 Y157.777 E6.38838
G1 X10.145 Y157.009 E6.42119
G1 X9.927 Y156.712 E6.43344
G1 X9.405 Y155.933 E6.46463
G1 X8.941 Y155.092 E6.49658
G1 X8.813 Y154.834 E6.50616
G1 X8.41 Y153.92 E6.53938
G1 X8.348 Y153.76 E6.54509
G1 X8.19 Y153.324 E6.56051
G1 X7.329 Y150.79 E6.64953
G1 X6.448 Y148.417 E6.73372
G1 X5.524 Y146.135 E6.8156
G1 X4.486 Y143.768 E6.90156
G1 X3.64 Y141.967 E6.96775
G1 X3.498 Y141.655 E6.97915
G1 X3.146 Y140.785 E7.01036
G1 X2.87 Y139.889 E7.04155
G1 X2.671 Y138.973 E7.07272
G1 X2.551 Y138.042 E7.10394
G1 X2.515 Y137.433 E7.12423
G1 X2.505 Y137.105 E7.13515
G1 X2.5 Y136.771 E7.14626
G1 X2.499 Y118.083 E7.76782
G1 X2.503 Y117.019 E7.80321
G1 X2.5 Y116.623 E7.81638
G1 X2.501 Y98.409 E8.42218
G1 X2.511 Y97.744 E8.44431
G1 X2.565 Y96.807 E8.47552
G1 X2.699 Y95.879 E8.50671
G1 X2.911 Y94.965 E8.53791
G1 X3.2 Y94.073 E8.5691
G1 X3.565 Y93.209 E8.6003
G1 X4.001 Y92.379 E8.63148
G1 X4.507 Y91.589 E8.66268
G1 X5.078 Y90.845 E8.69388
G1 X5.71 Y90.152 E8.72507
G1 X6.399 Y89.516 E8.75626
G1 X7.14 Y88.941 E8.78745
G1 X7.927 Y88.431 E8.81864
G1 X8.755 Y87.99 E8.84985
G1 X9.617 Y87.621 E8.88103
G1 X10.508 Y87.327 E8.91224
G1 X11.42 Y87.109 E8.94343
G1 X12.347 Y86.971 E8.9746
G0 F6000 X12.676 Y87.342
G1 F1200 X13.212 Y87.313 E8.99245
G1 X13.532 Y87.304 E9.0031
G1 X13.83 Y87.3 E9.01301
G1 X64.793 Y87.3 E10.70805
G1 X65.643 Y87.311 E10.73632
G1 X66.562 Y87.364 E10.76694
G1 X67.473 Y87.497 E10.79756
G1 X68.369 Y87.708 E10.82818
G1 X69.243 Y87.996 E10.85878
G1 X70.09 Y88.359 E10.88943
G1 X70.901 Y88.794 E10.92004
G1 X71.671 Y89.298 E10.95065
G1 X72.395 Y89.867 E10.98128
G1 X73.067 Y90.497 E11.01191
G1 X73.682 Y91.182 E11.04253
G1 X74.235 Y91.918 E11.07315
G1 X74.722 Y92.699 E11.10376
G1 X75.139 Y93.52 E11.13439
G1 X75.484 Y94.374 E11.16503
G1 X75.753 Y95.254 E11.19563
G1 X75.945 Y96.155 E11.22627
G1 X76.058 Y97.068 E11.25687
G1 X76.087 Y97.612 E11.27499
G1 X76.096 Y97.932 E11.28564
G1 X76.1 Y98.229 E11.29552
G1 X76.101 Y116.916 E11.91705
G1 X76.097 Y117.984 E11.95257
G1 X76.1 Y118.381 E11.96578
G1 X76.099 Y136.535 E12.56958
G1 X76.088 Y137.259 E12.59366
G1 X76.034 Y138.178 E12.62428
G1 X75.9 Y139.089 E12.65491
G1 X75.688 Y139.985 E12.68553
G1 X75.399 Y140.859 E12.71615
G1 X75.086 Y141.598 E12.74284
G1 X74.617 Y142.599 E12.77961
G1 X73.537 Y144.989 E12.86684
G1 X72.556 Y147.334 E12.95138
G1 X71.636 Y149.716 E13.03631
G1 X70.799 Y152.091 E13.12007
G1 X70.539 Y152.888 E13.14795
G1 X70.401 Y153.291 E13.16212
G1 X70.044 Y154.186 E13.19417
G1 X69.885 Y154.537 E13.20698
G1 X69.469 Y155.358 E13.2376
G1 X68.993 Y156.126 E13.26765
G1 X68.812 Y156.392 E13.27835
G1 X68.261 Y157.13 E13.30898
G1 X67.599 Y157.868 E13.34196
G1 X67.333 Y158.138 E13.35456
G1 X66.659 Y158.765 E13.38518
G1 X65.928 Y159.335 E13.41601
G1 X65.654 Y159.53 E13.4272
G1 X64.882 Y160.031 E13.45781
G1 X64.07 Y160.462 E13.48838
G1 X63.747 Y160.616 E13.50028
G1 X62.899 Y160.976 E13.53093
G1 X61.966 Y161.277 E13.56353
G1 X61.635 Y161.367 E13.57494
G1 X60.737 Y161.569 E13.60555
G1 X59.804 Y161.695 E13.63687
G1 X59.415 Y161.73 E13.64986
G1 X58.799 Y161.768 E13.67039
G1 X58.545 Y161.776 E13.67884
G1 X58.211 Y161.781 E13.68995
G1 X21.061 Y161.78 E14.92556
G1 X20.355 Y161.77 E14.94905
G1 X19.957 Y161.757 E14.96229
G1 X19.466 Y161.725 E14.97866
G1 X19.254 Y161.706 E14.98574
G1 X18.341 Y161.584 E15.01637
G1 X17.738 Y161.458 E15.03686
G1 X17.449 Y161.389 E15.04674
G1 X16.964 Y161.261 E15.06343
G1 X16.091 Y160.97 E15.09403
G1 X15.643 Y160.787 E15.11013
G1 X15.317 Y160.645 E15.12196
G1 X14.49 Y160.241 E15.15257
G1 X13.72 Y159.779 E15.18244
G1 X13.43 Y159.588 E15.19398
G1 X12.683 Y159.049 E15.22462
G1 X11.937 Y158.4 E15.25751
G1 X11.69 Y158.164 E15.26887
G1 X11.053 Y157.5 E15.29948
G1 X10.468 Y156.772 E15.33054
G1 X10.25 Y156.475 E15.34279
G1 X9.738 Y155.71 E15.37341
G1 X9.299 Y154.914 E15.40364
G1 X9.171 Y154.656 E15.41322
G1 X8.783 Y153.775 E15.44524
G1 X8.721 Y153.615 E15.45095
G1 X8.569 Y153.195 E15.4658
G1 X7.711 Y150.67 E15.5545
G1 X6.829 Y148.293 E15.63883
G1 X5.871 Y145.93 E15.72364
G1 X4.864 Y143.63 E15.80714
G1 X4.004 Y141.801 E15.87437
G1 X3.862 Y141.489 E15.88577
G1 X3.518 Y140.635 E15.91639
G1 X3.248 Y139.755 E15.94701
G1 X3.057 Y138.854 E15.97764
G1 X2.944 Y137.941 E16.00824
G1 X2.915 Y137.421 E16.02556
G1 X2.905 Y137.093 E16.03647
G1 X2.9 Y136.771 E16.04718
G1 X2.899 Y118.084 E16.66872
G1 X2.903 Y117.016 E16.70424
G1 X2.9 Y116.62 E16.71741
G1 X2.901 Y98.415 E17.32291
G1 X2.911 Y97.75 E17.34503
G1 X2.965 Y96.831 E17.37565
G1 X3.098 Y95.92 E17.40627
G1 X3.31 Y95.024 E17.4369
G1 X3.599 Y94.149 E17.46754
G1 X3.963 Y93.304 E17.49815
G1 X4.398 Y92.493 E17.52875
G1 X4.903 Y91.722 E17.55941
G1 X5.472 Y90.999 E17.59001
G1 X6.102 Y90.327 E17.62065
G1 X6.788 Y89.713 E17.65127
G1 X7.524 Y89.161 E17.68187
G1 X8.306 Y88.674 E17.71251
G1 X9.127 Y88.258 E17.74312
G1 X9.981 Y87.914 E17.77374
G1 X10.861 Y87.645 E17.80435
G1 X11.762 Y87.454 E17.83498
G1 X12.676 Y87.342 E17.86561
G0 F6000 X12.1 Y87.807
G1 F1200 X13.223 Y87.713 E17.90309
G1 X13.543 Y87.704 E17.91374
G1 X13.83 Y87.7 E17.92328
G1 X64.793 Y87.7 E19.61832
G1 X65.637 Y87.711 E19.64639
G1 X66.539 Y87.764 E19.67645
G1 X67.432 Y87.896 E19.70647
G1 X68.31 Y88.107 E19.7365
G1 X69.166 Y88.395 E19.76654
G1 X69.993 Y88.757 E19.79657
G1 X70.785 Y89.192 E19.82662
G1 X71.536 Y89.694 E19.85667
G1 X72.239 Y90.261 E19.88671
G1 X72.889 Y90.888 E19.91675
G1 X73.481 Y91.57 E19.94678
G1 X74.011 Y92.301 E19.97681
G1 X74.473 Y93.077 E20.00685
G1 X74.866 Y93.89 E20.03689
G1 X75.184 Y94.735 E20.06691
G1 X75.427 Y95.605 E20.09696
G1 X75.592 Y96.493 E20.127
G1 X75.687 Y97.623 E20.16472
G1 X75.696 Y97.943 E20.17536
G1 X75.7 Y98.229 E20.18488
G1 X75.701 Y116.914 E20.80634
G1 X75.697 Y117.987 E20.84203
G1 X75.7 Y118.384 E20.85524
G1 X75.699 Y136.529 E21.45874
G1 X75.688 Y137.253 E21.48282
G1 X75.634 Y138.154 E21.51284
G1 X75.501 Y139.048 E21.54291
G1 X75.289 Y139.926 E21.57295
G1 X75.001 Y140.781 E21.60296
G1 X74.724 Y141.428 E21.62636
G1 X74.273 Y142.389 E21.66167
G1 X73.162 Y144.849 E21.75145
G1 X72.191 Y147.171 E21.83516
G1 X71.262 Y149.575 E21.92088
G1 X70.408 Y151.999 E22.00636
G1 X70.097 Y152.946 E22.03951
G1 X70.023 Y153.159 E22.04701
G1 X69.679 Y154.021 E22.07788
G1 X69.52 Y154.372 E22.0907
G1 X69.111 Y155.177 E22.12073
G1 X68.662 Y155.901 E22.14906
G1 X68.481 Y156.167 E22.15977
G1 X67.94 Y156.891 E22.18983
G1 X67.314 Y157.587 E22.22096
G1 X67.048 Y157.857 E22.23357
G1 X66.386 Y158.472 E22.26362
G1 X65.696 Y159.009 E22.2927
G1 X65.422 Y159.204 E22.30389
G1 X64.664 Y159.695 E22.33392
G1 X63.898 Y160.101 E22.36276
G1 X63.575 Y160.255 E22.37466
G1 X62.743 Y160.607 E22.40471
G1 X61.861 Y160.891 E22.43553
G1 X61.53 Y160.981 E22.44694
G1 X60.649 Y161.179 E22.47697
G1 X59.768 Y161.297 E22.50653
G1 X59.379 Y161.332 E22.51952
G1 X58.786 Y161.368 E22.53928
G1 X58.532 Y161.376 E22.54773
G1 X58.211 Y161.381 E22.55841
G1 X21.067 Y161.38 E23.79383
G1 X20.361 Y161.37 E23.81731
G1 X19.974 Y161.358 E23.83019
G1 X19.501 Y161.326 E23.84596
G1 X19.289 Y161.307 E23.85304
G1 X18.394 Y161.187 E23.88307
G1 X17.831 Y161.069 E23.9022
G1 X17.542 Y161 E23.91209
G1 X17.074 Y160.877 E23.92818
G1 X15.803 Y160.42 E23.9731
G1 X15.477 Y160.278 E23.98493
G1 X14.666 Y159.881 E24.01496
G1 X13.94 Y159.445 E24.04313
G1 X13.65 Y159.254 E24.05468
G1 X12.918 Y158.725 E24.08472
G1 X12.214 Y158.111 E24.11579
G1 X11.967 Y157.875 E24.12715
G1 X11.342 Y157.223 E24.15719
G1 X10.79 Y156.536 E24.1865
G1 X10.572 Y156.239 E24.19875
G1 X10.071 Y155.488 E24.22878
G1 X9.658 Y154.736 E24.25732
G1 X9.53 Y154.478 E24.2669
G1 X9.156 Y153.63 E24.29772
G1 X9.094 Y153.47 E24.30343
G1 X8.947 Y153.067 E24.3177
G1 X8.077 Y150.507 E24.40762
G1 X7.199 Y148.141 E24.49156
G1 X6.25 Y145.799 E24.57561
G1 X5.22 Y143.449 E24.66095
G1 X4.368 Y141.635 E24.72761
G1 X4.226 Y141.323 E24.73901
G1 X3.889 Y140.486 E24.76902
G1 X3.627 Y139.621 E24.79908
G1 X3.443 Y138.737 E24.82911
G1 X3.315 Y137.409 E24.87348
G1 X3.305 Y137.081 E24.8844
G1 X3.3 Y136.771 E24.89471
G1 X3.299 Y118.086 E25.51618
G1 X3.303 Y117.013 E25.55186
G1 X3.3 Y116.617 E25.56504
G1 X3.301 Y98.421 E26.17024
G1 X3.311 Y97.756 E26.19236
G1 X3.365 Y96.854 E26.22241
G1 X3.498 Y95.961 E26.25244
G1 X3.709 Y95.083 E26.28248
G1 X3.998 Y94.227 E26.31252
G1 X4.361 Y93.4 E26.34256
G1 X4.795 Y92.609 E26.37257
G1 X5.298 Y91.858 E26.40264
G1 X5.866 Y91.156 E26.43267
G1 X6.493 Y90.506 E26.46271
G1 X7.175 Y89.914 E26.49275
G1 X7.907 Y89.385 E26.52278
G1 X8.683 Y88.923 E26.55282
G1 X9.497 Y88.532 E26.58286
G1 X10.342 Y88.213 E26.6129
G1 X11.212 Y87.971 E26.64293
G1 X12.1 Y87.807 E26.67297
G1 F1500 E20.17297
;MESH:Two Thread Box Walls.stl
G0 F6000 X66.153 Y97.247
G0 X66.153 Y137.753
G0 X62.963 Y137.765
G0 X62.963 Y136.66
G0 X64.9 Y136.5
;TYPE:WALL-INNER
G1 F1500 E26.67297
G1 F1200 X14.1 Y136.5 E28.36258
G1 X14.1 Y118.7 E28.95461
G1 X25.9 Y118.7 E29.34708
G1 X25.9 Y113.7 E29.51338
G1 X33.1 Y113.7 E29.75286
G1 X33.1 Y118.7 E29.91916
G1 X45.9 Y118.7 E30.34489
G1 X45.9 Y113.7 E30.51119
G1 X53.1 Y113.7 E30.75066
G1 X53.1 Y118.7 E30.91696
G1 X64.9 Y118.7 E31.30943
G1 X64.9 Y136.5 E31.90146
G0 F6000 X65.3 Y136.9
;TYPE:WALL-OUTER
G1 F1200 X13.7 Y136.9 E33.61768
G1 X13.7 Y118.3 E34.23632
G1 X25.5 Y118.3 E34.62879
G1 X25.5 Y113.3 E34.79509
G1 X33.5 Y113.3 E35.06117
G1 X33.5 Y118.3 E35.22747
G1 X45.5 Y118.3 E35.6266
G1 X45.5 Y113.3 E35.7929
G1 X53.5 Y113.3 E36.05898
G1 X53.5 Y118.3 E36.22528
G1 X65.3 Y118.3 E36.61775
G1 X65.3 Y136.9 E37.23639
G0 F6000 X65.03 Y136.63
G0 X64.79 Y136.11
G0 X64.51 Y136.11
;TYPE:SKIN
G1 F1200 X14.49 Y136.11 E38.90006
G1 X14.49 Y119.09 E39.46615
G1 X26.29 Y119.09 E39.85862
G1 X26.29 Y114.09 E40.02492
G1 X32.71 Y114.09 E40.23845
G1 X32.71 Y119.09 E40.40475
G1 X46.29 Y119.09 E40.85642
G1 X46.29 Y114.09 E41.02272
G1 X52.71 Y114.09 E41.23625
G1 X52.71 Y119.09 E41.40255
G1 X64.51 Y119.09 E41.79502
G1 X64.51 Y136.11 E42.36111
G0 F6000 X64.79 Y136.11
G0 X64.79 Y119.787
G0 X64.35 Y119.787
G1 F1200 X63.812 Y119.249 E42.38641
G0 F6000 X63.246 Y119.249
G1 F1200 X64.35 Y120.353 E42.43834
G0 F6000 X64.35 Y120.918
G1 F1200 X62.68 Y119.249 E42.51687
G0 F6000 X62.115 Y119.249
G1 F1200 X64.35 Y121.484 E42.622
G0 F6000 X64.35 Y122.05
G1 F1200 X61.549 Y119.249 E42.75375
G0 F6000 X60.983 Y119.249
G1 F1200 X64.35 Y122.615 E42.9121
G0 F6000 X64.35 Y123.181
G1 F1200 X60.418 Y119.249 E43.09705
G0 F6000 X59.852 Y119.249
G1 F1200 X64.35 Y123.747 E43.30862
G0 F6000 X64.35 Y124.312
G1 F1200 X59.286 Y119.249 E43.54679
G0 F6000 X58.72 Y119.249
G1 F1200 X64.35 Y124.878 E43.81159
G0 F6000 X64.35 Y125.444
G1 F1200 X58.155 Y119.249 E44.10298
G0 F6000 X57.589 Y119.249
G1 F1200 X64.35 Y126.009 E44.42097
G0 F6000 X64.35 Y126.575
G1 F1200 X57.023 Y119.249 E44.76559
G0 F6000 X56.458 Y119.249
G1 F1200 X64.35 Y127.141 E45.1368
G0 F6000 X64.35 Y127.707
G1 F1200 X55.892 Y119.249 E45.53464
G0 F6000 X55.326 Y119.249
G1 F1200 X64.35 Y128.272 E45.95908
G0 F6000 X64.35 Y128.838
G1 F1200 X54.761 Y119.249 E46.41012
G0 F6000 X54.195 Y119.249
G1 F1200 X64.35 Y129.404 E46.88778
G0 F6000 X64.35 Y129.969
G1 F1200 X53.629 Y119.249 E47.39204
G0 F6000 X53.064 Y119.249
G1 F1200 X64.35 Y130.535 E47.9229
G0 F6000 X64.35 Y131.101
G1 F1200 X47.498 Y114.249 E48.71556
G0 F6000 X46.932 Y114.249
G1 F1200 X64.35 Y131.666 E49.53483
G0 F6000 X64.35 Y132.232
G1 F1200 X46.449 Y114.332 E50.37681
G0 F6000 X46.449 Y114.897
G1 F1200 X64.35 Y132.798 E51.21882
G0 F6000 X64.35 Y133.363
G1 F1200 X46.449 Y115.463 E52.06081
G0 F6000 X46.449 Y116.029
G1 F1200 X64.35 Y133.929 E52.90279
G0 F6000 X64.35 Y134.495
G1 F1200 X46.449 Y116.594 E53.7448
G0 F6000 X46.449 Y117.16
G1 F1200 X64.35 Y135.06 E54.58678
G0 F6000 X64.35 Y135.626
G1 F1200 X46.449 Y117.726 E55.42877
G0 F6000 X46.449 Y118.291
G1 F1200 X64.107 Y135.949 E56.25935
G0 F6000 X63.541 Y135.949
G1 F1200 X46.449 Y118.857 E57.0633
G0 F6000 X46.275 Y119.249
G1 F1200 X62.975 Y135.949 E57.84882
G0 F6000 X62.409 Y135.949
G1 F1200 X45.71 Y119.249 E58.63431
G0 F6000 X45.144 Y119.249
G1 F1200 X61.844 Y135.949 E59.41983
G0 F6000 X61.278 Y135.949
G1 F1200 X44.578 Y119.249 E60.20534
G0 F6000 X44.013 Y119.249
G1 F1200 X60.712 Y135.949 E60.99084
G0 F6000 X60.147 Y135.949
G1 F1200 X43.447 Y119.249 E61.77635
G0 F6000 X42.881 Y119.249
G1 F1200 X59.581 Y135.949 E62.56187
G0 F6000 X59.015 Y135.949
G1 F1200 X42.316 Y119.249 E63.34736
G0 F6000 X41.75 Y119.249
G1 F1200 X58.45 Y135.949 E64.13288
G0 F6000 X57.884 Y135.949
G1 F1200 X41.184 Y119.249 E64.9184
G0 F6000 X40.619 Y119.249
G1 F1200 X57.318 Y135.949 E65.70389
G0 F6000 X56.753 Y135.949
G1 F1200 X40.053 Y119.249 E66.48941
G0 F6000 X39.487 Y119.249
G1 F1200 X56.187 Y135.949 E67.27493
G0 F6000 X55.621 Y135.949
G1 F1200 X38.921 Y119.249 E68.06044
G0 F6000 X38.356 Y119.249
G1 F1200 X55.056 Y135.949 E68.84596
G0 F6000 X54.49 Y135.949
G1 F1200 X37.79 Y119.249 E69.63148
G0 F6000 X37.224 Y119.249
